X: 21083
T: THE FIDDLER'S FANCY -- Hornpipe
R: hornpipe
B: K\"ohler's Violin Repository, v.2, 1885 p.108 #3
F: http://www.archive.org/details/klersviolinrepos02rugg
Z: 2012 John Chambers <jc:trillian.mit.edu>
M: C|
L: 1/8
K: E
uE2 |\
B,>EG>B e2((3efg) | (a>g)f>e (d>e)f>g | (a>g)f>e (d>e)f>d | (e>f)g>a (ub>g)a>f |
e>BG>B e2((3efg) | (a>g)f>e (d>e)f>a | (g>b)g>e (c>a)f>d | e2g2 e2 :|
|: (g>a) |\
(b>g)e>B (G>B)b>g | a2f2 f2(f>g) | (a>g)f>e (d>e)f>g | (a>b)g>a (f>a)g>f |
e>BG>B e2((3efg) | (a>g)f>e (d>e)f>a | (g>b)g>e (c>a)f>d | e2g2 e2 :|

%%sep 2 1 500

